X: 11555
T: Edenderry, The
R: reel
M: 4/4
K: Gmajor
|:B2 AG BG~G2|B2 AG (3Bcd gd|B2 AG BG ~G2|(3ABc BG AGEG:|
~g3 a gede|gabg agab|~g3 a gedB|(3ABc BG AGEG|
~g3 a gede|gabg a2 c'a|~b2 ~a2 gedB|Aeed edBA||

